X: 1
T: Scots Wha Hae Wi' Wallace Bled
R: jig
B: James Kerr "Merry Melodies" v.3 p.24 #202
Z: 2016 John Chambers <jc:trillian.mit.edu>
M: 6/8
L: 1/8
K: D
|:\
"D"A2A A2F | A2B d3  | "G"B2B B2A | B2c "A7"d2e |\
"D"f2g "A"e2f | "Bm"d2e f2e | "G"dB2 B2A | "A7"A2- Az2 :|
|:\
"D"f2f f2e | f2g a3 | "Em"e2e e2d | "A7"e2f g3 |\
"D"a2f "A"e2f | "Bm"d2e f2e | "G"dB2 B2A | "A7"A3- Az2 :|
